X: 39565
T: Teardrop, The
R: waltz
M: 3/4
K: Dmajor
|:"D"d>e d>c B>A|A2 A>F D>E|F2 F3 D|"Bm"B3 cde|
"D"F2 E3 D|F2 E3 D|"G"B4- Bd|"A7"B3 dcB|
"D"AB AG FE|D3 ADE|F2 F3 D|"Bm"B3 cde|
"D"F2 A3 F|"A7"E3 dBc|"D"d4- DE|1 DE FG (3ABc:|2 D2 d2 c2||
|:"Bm"B4- BA|"G"B4- BA|"D"A4- AB|A2 d2 c2|
"G"B4 c2|"A7"d4 e2|"D"f4- fg|fe dc Bc|
"G"d4- dc|d4- dc|"D"d3 BAF|D3 ADE|
"Bm"F2 A3 F|"A7"E3 dBc|1 "D"d4- DE|D2 d2 c2:|2 "D"D2 F2 A2|d3||

